X:1
T:Title
%%score { ( 1 3 ) | ( 2 4 ) }
L:1/8
Q:1/4=94
M:4/4
K:Ab
V:1 treble nm="Grand Piano"
V:3 treble 
V:2 bass 
V:4 bass 
V:1
 [CE][CF][CG][CA] [CA][CA][CG][CF] | [DA]2 [DG]2 [DG]4 | BBBB BBcB | [CA]2 [DF]2 [CE]4 | %4
w: Banjamin~F.~Butts * * * * * * *||||
 cccc ec[EB][EA] | [EG]2 [DF]2 [Fd]4 | [Ec][EB][EA][DF] [CE][EA][FA][FB] | [Ec]2 [DB]2 [CA]4 | %8
w: ||||
 cccc e[Ec][EB][EA] | [EF]2 A2 E4 | cccc ecBA | z4 B4 | EEFG Acdc | [FB]2 [FA]2 F4 | %14
w: ||||||
 EFGA cA[Fd][Ec] | B2 B2 z4 |] %16
w: ||
V:2
 [A,,E,][A,,E,][A,,E,][A,,E,] [A,,E,][A,,E,][A,,E,][A,,E,] | [B,,E,]2 [B,,E,]2 [B,,E,]4 | %2
 [E,G,D][E,G,D][E,G,D][E,G,D] [E,G,D][E,G,D][E,G,E][E,G,D] | [A,,A,]2 [A,,A,]2 [A,,A,]4 | %4
 [A,E][A,E][A,E][A,E] [A,CE][A,E][C,A,][C,A,] | [D,A,]2 [D,A,]2 [D,A,]4 | %6
 [A,,A,][B,,G,][C,A,][C,A,] [A,,A,][C,A,][D,A,][B,,A,] | [E,A,]2 [E,G,]2 [A,,A,]4 | %8
 [A,E][A,E][A,E][A,E] [A,CE][A,,A,][B,,G,][C,A,] | [D,A,]2 [F,A,D]2 [A,C]4 | %10
 [A,E][A,E][A,E][A,E] [A,CE][A,E][G,B,E][F,CE] | z4 E2 z2 | %12
 [A,C][A,C][A,D][A,B,] [A,C][K:treble][A,E][A,F][K:bass][A,E] | [D,A,]2 [D,A,]2 [D,A,D]4 | %14
 E,F,G,A, [A,E][F,A,F][B,,A,][C,A,] | .[D,A,D]2 .[E,G,E]2 [A,,A,]4 |] %16
V:3
 x8 | x8 | x8 | x8 | x8 | x8 | x8 | x8 | x8 | x8 | x8 | B2 [=Dc]2 z2 _D2 | x8 | x8 | x8 | %15
 z F z D [CA]4 |] %16
V:4
 x8 | x8 | x8 | x8 | x8 | x8 | x8 | x8 | x8 | x8 | x8 | [E,G,E]2 [B,,A,]2 [E,G,]4 | %12
 x5[K:treble] x2[K:bass] x | x8 | x8 | x8 |] %16

